icons/code-circle-vertical.svg

<svg xmlns="http://www.w3.org/2000/svg" viewBox="0 0 24 24" fill="currentColor">
  <path d="M11.9923 3.75C7.41014 3.75408 3.75 7.41677 3.75 12c0 4.5858 3.66421 8.25 8.25 8.25 4.5858 0 8.25-3.6642 8.25-8.25 0-4.46972-3.7494-8.15392-8.2577-8.25ZM2.25 12c0-5.41421 4.33579-9.75 9.75-9.75h.0077l.0076.00016C17.3037 2.35808 21.75 6.67224 21.75 12c0 5.4142-4.3358 9.75-9.75 9.75-5.41421 0-9.75-4.3358-9.75-9.75Zm7.31964 1.3698c.29289-.2929.76776-.2929 1.06066 0L12 14.7395l1.3696-1.3697c.2929-.2929.7678-.2929 1.0607 0 .2929.2929.2929.7678 0 1.0607l-1.4 1.4c-.2705.2705-.6296.4446-1.0303.4446-.4007 0-.7598-.1741-1.0303-.4446l-1.40005-1.4c-.2929-.2929-.2929-.7678-.00001-1.0607Zm.96066-2.6393L11.9 9.36086l1.3697 1.36964c.2929.2929.7677.2929 1.0606 0 .2929-.2929.2929-.76775 0-1.06064l-1.4-1.39999c-.2705-.27052-.6296-.44467-1.0303-.44467-.4007 0-.7598.17415-1.0303.44467L9.46967 9.66986c-.29289.29289-.29289.76774 0 1.06064.29289.2929.76773.2929 1.06063 0Z"/>
</svg>

<svg width="24" height="24" viewBox="0 0 24 24" fill="none" xmlns="http://www.w3.org/2000/svg">
<path fill-rule="evenodd" clip-rule="evenodd" d="M11.9923 3.75C7.41014 3.75408 3.75 7.41677 3.75 12C3.75 16.5858 7.41421 20.25 12 20.25C16.5858 20.25 20.25 16.5858 20.25 12C20.25 7.53028 16.5006 3.84608 11.9923 3.75ZM2.25 12C2.25 6.58579 6.58579 2.25 12 2.25H12.0077L12.0153 2.25016C17.3037 2.35808 21.75 6.67224 21.75 12C21.75 17.4142 17.4142 21.75 12 21.75C6.58579 21.75 2.25 17.4142 2.25 12ZM9.56964 13.3698C9.86253 13.0769 10.3374 13.0769 10.6303 13.3698L12 14.7395L13.3696 13.3698C13.6625 13.0769 14.1374 13.0769 14.4303 13.3698C14.7232 13.6627 14.7232 14.1376 14.4303 14.4305L13.0303 15.8305C12.7598 16.101 12.4007 16.2751 12 16.2751C11.5993 16.2751 11.2402 16.101 10.9697 15.8305L9.56965 14.4305C9.27675 14.1376 9.27675 13.6627 9.56964 13.3698ZM10.5303 10.7305L11.9 9.36086L13.2697 10.7305C13.5626 11.0234 14.0374 11.0234 14.3303 10.7305C14.6232 10.4376 14.6232 9.96275 14.3303 9.66986L12.9303 8.26987C12.6598 7.99935 12.3007 7.8252 11.9 7.8252C11.4993 7.8252 11.1402 7.99935 10.8697 8.26987L9.46967 9.66986C9.17678 9.96275 9.17678 10.4376 9.46967 10.7305C9.76256 11.0234 10.2374 11.0234 10.5303 10.7305Z" fill="black"/>
</svg>
